www/assets/icons/space_dashboard.svg

<svg xmlns="http://www.w3.org/2000/svg" width="24" height="24" viewBox="0 0 24 24" fill='currentColor'><path d="M11 21H5c-1.1 0-2-.9-2-2V5c0-1.1.9-2 2-2h6zm2 0h6c1.1 0 2-.9 2-2v-7h-8zm8-11V5c0-1.1-.9-2-2-2h-6v7z"/></svg>

<svg width="24" height="24" viewBox="0 0 24 24" xmlns="http://www.w3.org/2000/svg" fill='currentColor'><path d="M11 21H5C3.9 21 3 20.1 3 19V5C3 3.9 3.9 3 5 3H11V21ZM13 21H19C20.1 21 21 20.1 21 19V12H13V21ZM21 10V5C21 3.9 20.1 3 19 3H13V10H21Z"/></svg>
